X:9584
T:Life Let Us Cherish. JNu.58
M:6/8
L:1/8
Q:110
C:"Hart's 8th Set"
S:James Nuttall MS,c1830?,Rossendale,East Lancs.
R:Quadrille
O:England
A:East Lancashire
Z:Chris Partington
K:F
A3(BAB)|c2ff3|F3GFG|ABA GcB|!
A3BAB|ecf fdB|AB=B c_BG|F2AF2||!
c|c2B GAB|c2AF2c|c2B GAB|c2AF2c|!
dcB fed|c2Af2f|cdc cBA|A3"segno"GdB||!
a|a2f def|e2^c A2a|a2g efg|a2fd2A|!
BGBd2B|A^GAd2c|cdc cBA|A3"DC"GcB|]


